X:1
T:Charleston, 87.87
T:Charleston, 87.87
T:Amos Pilsbury, 1799
T:Public Domain Courtesy of the Cyber Hymnal™
C:Amos Pilsbury, 1799
Z:Public Domain
Z:Courtesy of the Cyber Hymnal™
%%score ( 1 2 ) ( 3 4 )
L:1/8
Q:1/4=125
M:3/4
K:F
V:1 treble 
V:2 treble 
V:3 bass 
V:4 bass 
V:1
 [CF]4 [EG]2 | [FA]4 GA | [Fc]4 [CA]2 | [DG]2 !fermata!F4 | [Fc]4 (de) | [Df]4 [Fd]2 | %6
 [Fc]4 [FA]2 | [EG]6 | [Cc]4 (de) | [Ff]4 [Dd]2 | [Cc]4 [CA]2 | [DG]2 !fermata!F4 | F4 [FA]2 | %13
 [Cc]4 [Dd]2 | [CA]4 [CG]2 | [CF]6 |] %16
V:2
 x6 | x4 D2 | x6 | x2 F4 | x4 D2 | x6 | x6 | x6 | x4 D2 | x6 | x6 | x2 F4 | F4 x2 | x6 | x6 | x6 |] %16
V:3
 [F,A,]4 [C,C]2 | [F,C]4 [D,C]2 | [C,A,]4 [C,C]2 | [D,B,]2 !fermata![F,A,]4 | [F,A,]4 [G,B,]2 | %5
 [B,D]4 [G,B,]2 | [F,A,]4 [F,C]2 | [C,C]6 | A,4 [G,B,]2 | [F,A,]4 [G,B,]2 | [F,A,]4 [C,C]2 | %11
 [D,C]2 !fermata![F,C]4 | [F,A,]4 [A,,C]2 | [C,G,]4 [D,A,]2 | [C,C]4 [C,C]2 | F,6 |] %16
V:4
 x6 | x6 | x6 | x6 | x6 | x6 | x6 | x6 | A,4 x2 | x6 | x6 | x6 | x6 | x6 | x6 | F,6 |] %16

